; HEADER_BLOCK_START
; generated by OrcaSlicer 2.3.1 on 2025-12-09 at 17:45:41
; total layer number: 119
; filament_density: 1.27
; filament_diameter: 1.75
; max_z_height: 23.80
; HEADER_BLOCK_END

; THUMBNAIL_BLOCK_START

;
; THUMBNAIL_BLOCK_END

; THUMBNAIL_BLOCK_START

;
; THUMBNAIL_BLOCK_END

; external perimeters extrusion width = 0.42mm
; perimeters extrusion width = 0.45mm
; infill extrusion width = 0.45mm
; solid infill extrusion width = 0.42mm
; top infill extrusion width = 0.42mm
; first layer extrusion width = 0.50mm

; EXECUTABLE_BLOCK_START
EXCLUDE_OBJECT_DEFINE NAME=Bawah.stl_id_0_copy_0 CENTER=150,150 POLYGON=[[58.8305,249.809],[90.1145,43.9713],[90.4411,42.3295],[90.9792,40.7443],[91.7195,39.2428],[92.6496,37.8509],[93.7533,36.5922],[95.0118,35.4884],[96.4037,34.5583],[97.905,33.8178],[99.4902,33.2795],[101.132,32.9528],[102.802,32.8432],[201.616,32.8342],[202.71,32.9058],[203.785,33.1195],[204.823,33.4717],[205.806,33.9564],[206.717,34.5652],[207.541,35.2878],[208.264,36.1117],[208.872,37.0229],[209.357,38.0058],[209.709,39.0435],[209.923,40.1184],[241.17,249.798],[213.818,267.155],[86.1819,267.166],[58.8305,249.809]]
M73 P0 R100
M106 S0
M106 P2 S0
;TYPE:Custom
M140 S0
M104 S0 
START_PRINT EXTRUDER_TEMP=220 BED_TEMP=60
G90
G21
M83 ; use relative distances for extrusion
; Filament gcode
M106 S0
M106 P2 S0
;LAYER_CHANGE
;Z:0.2
;HEIGHT:0.2
;BEFORE_LAYER_CHANGE
;0.2
G92 E0

G1 E-.6 F2400
;_SET_FAN_SPEED_CHANGING_LAYER
SET_VELOCITY_LIMIT ACCEL=500 ACCEL_TO_DECEL=250
SET_VELOCITY_LIMIT SQUARE_CORNER_VELOCITY=9
EXCLUDE_OBJECT_START NAME=Bawah.stl_id_0_copy_0
G1 Z.4 F30000
G1 X209.641 Y181.951
G1 Z.4
G1 Z.2
G1 E.6 F2400
;TYPE:Inner wall
;WIDTH:0.499999
G1 F3600
G1 X209.802 Y181.977 E.00588
G1 X215.516 Y181.978 E.20632
G1 X215.77 Y181.949 E.00921
G1 X216.049 Y181.846 E.01076
G1 X219.096 Y180.24 E.12438
G1 X212.642 Y212.945 E1.20363
G1 X212.472 Y213.848 E.03317
M73 P0 R99
G1 X212.518 Y214.259 E.01493
G1 X212.703 Y214.622 E.01472
G1 X239.226 Y249.45 E1.58061
G1 X216.648 Y263.777 E.96547
G1 X222.281 Y250.053 E.53566
G1 X222.324 Y249.691 E.01314
G1 X222.249 Y249.314 E.01388
G1 X222.091 Y249.03 E.01176
G1 X221.795 Y248.758 E.0145
G1 X210.664 Y241.676 E.47633
G1 X210.434 Y241.564 E.00925
G1 X210.051 Y241.498 E.01404
G1 X89.779 Y241.509 E4.34255
G1 X89.336 Y241.687 E.01725
G1 X78.123 Y248.821 E.47982
G1 X77.861 Y249.109 E.01406
G1 X77.714 Y249.439 E.01304
G1 X77.681 Y249.851 E.01493
G1 X77.761 Y250.167 E.01176
G1 X83.352 Y263.788 E.53164
G1 X60.774 Y249.461 E.96547
G1 X87.387 Y214.514 E1.586
G1 X87.521 Y214.09 E.01605
G1 X87.509 Y213.72 E.01339
G1 X80.908 Y180.253 E1.23164
G1 X83.951 Y181.857 E.12421
G1 X84.23 Y181.96 E.01076
G1 X84.484 Y181.989 E.00921
G1 X90.352 Y181.988 E.21188
G1 X90.787 Y181.824 E.01678
G1 X91.085 Y181.566 E.01423
G1 X91.269 Y181.242 E.01344
G1 X91.341 Y180.845 E.01457
G1 X91.341 Y45.686 E4.88007
G1 X91.442 Y44.146 E.0557
G1 X91.734 Y42.676 E.05412
G1 X92.216 Y41.256 E.05412
G1 X92.879 Y39.912 E.05412
G1 X93.711 Y38.666 E.05412
G1 X94.7 Y37.539 E.05412
G1 X95.827 Y36.55 E.05412
G1 X97.073 Y35.717 E.05412
G1 X98.417 Y35.054 E.05412
G1 X99.837 Y34.572 E.05412
G1 X101.307 Y34.28 E.05412
G1 X102.846 Y34.179 E.0557
G1 X201.602 Y34.172 E3.56566
G1 X202.535 Y34.233 E.03379
G1 X203.439 Y34.412 E.03325
G1 X204.311 Y34.708 E.03325
G1 X205.136 Y35.116 E.03325
G1 X205.902 Y35.627 E.03325
G1 X206.595 Y36.234 E.03325
G1 X207.202 Y36.927 E.03325
G1 X207.703 Y37.677 E.03261
G1 X208.121 Y38.519 E.03393
G1 X208.417 Y39.39 E.0332
G1 X208.596 Y40.293 E.03325
G1 X208.659 Y41.256 E.03483
G1 X208.659 Y81.434 E1.45069
G1 X208.36 Y80.813 E.02489
G1 X207.789 Y80.069 E.03388
G1 X207.578 Y79.858 E.01077
G1 X206.833 Y79.287 E.03388
G1 X206.575 Y79.138 E.01077
G1 X205.708 Y78.778 E.03389
G1 X205.407 Y78.699 E.01124
G1 X204.434 Y78.583 E.03539
G1 X204.148 Y78.584 E.0103
G1 X203.261 Y78.701 E.03232
G1 X202.973 Y78.778 E.01077
G1 X202.106 Y79.138 E.03388
G1 X201.847 Y79.287 E.01077
G1 X201.14 Y79.83 E.0322
G1 X200.892 Y80.069 E.01243
G1 X200.321 Y80.813 E.03388
G1 X200.172 Y81.072 E.01077
G1 X199.813 Y81.939 E.03388
G1 X199.735 Y82.227 E.01077
G1 X199.613 Y83.157 E.03388
G1 X199.613 Y83.455 E.01077
G1 X199.709 Y84.185 E.02656
G1 X199.813 Y84.674 E.01805
G1 X200.155 Y85.501 E.03232
G1 X200.296 Y85.749 E.0103
G1 X200.884 Y86.533 E.0354
G1 X201.113 Y86.763 E.01171
G1 X201.898 Y87.35 E.0354
G1 X202.146 Y87.492 E.0103
G1 X202.973 Y87.834 E.03232
G1 X203.261 Y87.911 E.01077
G1 X204.191 Y88.034 E.03388
G1 X204.49 Y88.034 E.01077
G1 X205.42 Y87.911 E.03388
G1 X205.708 Y87.834 E.01077
G1 X206.575 Y87.475 E.03388
G1 X206.833 Y87.326 E.01077
G1 X207.578 Y86.755 E.03388
G1 X207.789 Y86.544 E.01077
G1 X208.36 Y85.799 E.03388
G1 X208.659 Y85.178 E.02489
G1 X208.659 Y180.834 E3.45375
G1 X208.691 Y181.103 E.00975
G1 X208.843 Y181.456 E.01388
G1 X209.116 Y181.748 E.01445
G1 X209.447 Y181.92 E.01346
G1 X209.601 Y181.945 E.00566
G1 X209.703 Y181.498 F30000
G1 F3600
G1 X209.802 Y181.52 E.00365
G1 X215.516 Y181.521 E.20632
G1 X215.836 Y181.442 E.0119
G1 X219.271 Y179.63 E.14022
G1 X219.778 Y179.327 E.02132
G1 X219.503 Y180.522 E.04429
G1 X212.939 Y213.797 E1.22458
G1 X212.939 Y214.062 E.00957
G1 X213.067 Y214.345 E.01121
G1 X239.891 Y249.569 E1.59858
G1 X216.287 Y264.548 E1.00936
G1 X215.646 Y264.973 E.02775
G1 X215.955 Y264.261 E.02799
G1 X221.842 Y249.921 E.55972
G1 X221.86 Y249.621 E.01084
G1 X221.756 Y249.347 E.01056
G1 X221.55 Y249.144 E.01047
G1 X210.35 Y242.018 E.47931
G1 X210.051 Y241.955 E.01102
G1 X89.875 Y241.966 E4.33906
G1 X89.581 Y242.073 E.01131
G1 X78.399 Y249.187 E.47851
G1 X78.209 Y249.418 E.01081
G1 X78.133 Y249.715 E.01106
G1 X78.184 Y249.993 E.01023
G1 X84.06 Y264.309 E.55874
G1 X84.354 Y264.984 E.02656
G1 X83.707 Y264.555 E.028
G1 X60.109 Y249.58 E1.00911
G1 X86.933 Y214.356 E1.59858
G1 X87.052 Y214.111 E.00983
G1 X87.061 Y213.808 E.01095
G1 X80.496 Y180.527 E1.22481
G1 X80.222 Y179.338 E.04406
G1 X80.754 Y179.655 E.02238
G1 X84.164 Y181.453 E.13916
G1 X84.484 Y181.532 E.0119
G1 X90.329 Y181.531 E.21106
G1 X90.648 Y181.362 E.01302
G1 X90.824 Y181.125 E.01066
G1 X90.884 Y180.845 E.01033
G1 X90.884 Y45.671 E4.88061
G1 X90.987 Y44.086 E.05733
G1 X91.292 Y42.557 E.05629
G1 X91.793 Y41.081 E.05628
G1 X92.482 Y39.683 E.05628
G1 X93.348 Y38.387 E.05628
G1 X94.376 Y37.215 E.05629
G1 X95.548 Y36.187 E.05628
G1 X96.844 Y35.321 E.05629
G1 X98.242 Y34.631 E.05629
G1 X99.718 Y34.13 E.05628
G1 X101.247 Y33.826 E.05629
G1 X102.831 Y33.722 E.05733
G1 X201.617 Y33.715 E3.56674
G1 X202.595 Y33.779 E.03541
G1 X203.557 Y33.97 E.03541
G1 X204.486 Y34.285 E.03541
G1 X205.365 Y34.719 E.03541
G1 X206.181 Y35.264 E.03541
G1 X206.918 Y35.91 E.03541
G1 X207.565 Y36.648 E.03541
G1 X208.1 Y37.448 E.03475
G1 X208.544 Y38.343 E.03609
G1 X208.859 Y39.271 E.03538
G1 X209.05 Y40.233 E.03541
G1 X209.116 Y41.241 E.03645
G1 X209.116 Y81.042 E1.43705
;WIDTH:0.54243
G1 X209.095 Y81.644 E.02376
;WIDTH:0.584861
G1 X209.074 Y82.246 E.02578
G1 X209.089 Y82.837 E.02533
;WIDTH:0.554114
G1 X209.105 Y83.429 E.02389
G1 X209.089 Y83.898 E.01896
;WIDTH:0.584861
G1 X209.074 Y84.367 E.0201
G1 X209.097 Y84.632 E.0114
;WIDTH:0.538588
G1 X209.116 Y85.571 E.03675
;WIDTH:0.499999
G1 X209.116 Y179.873 E3.40486
G1 X209.136 Y180.995 E.04054
G1 X209.279 Y181.278 E.01143
G1 X209.509 Y181.454 E.01047
G1 X209.664 Y181.489 E.00575
G1 X209.802 Y181.041 F30000
;TYPE:Outer wall
G1 F3600
G1 X215.567 Y181.042 E.20817
G1 X219.022 Y179.221 E.14101
G1 X219.459 Y178.966 E.01826
G1 X220.184 Y178.453 E.03207
G1 X220.571 Y178.261 E.01557
G1 X220.499 Y178.696 E.01591
G1 X220.221 Y179.515 E.03124
G1 X219.972 Y180.615 E.04071
G1 X213.409 Y213.89 E1.22458
G1 X213.447 Y214.055 E.00614
G1 X240.587 Y249.694 E1.6174
G1 X216.543 Y264.952 E1.02821
G1 X215.668 Y265.537 E.03799
G1 X214.93 Y266.153 E.03471
G1 X214.37 Y266.509 E.02393
G1 X214.607 Y265.893 E.02381
G1 X215.113 Y264.999 E.03709
G1 X215.512 Y264.08 E.03619
G1 X221.381 Y249.782 E.55803
G1 X221.387 Y249.692 E.00327
G1 X221.293 Y249.547 E.00621
G1 X210.162 Y242.466 E.47633
G1 X210.051 Y242.433 E.00418
G1 X89.949 Y242.444 E4.33641
G1 X89.838 Y242.477 E.00418
G1 X78.707 Y249.558 E.47633
G1 X78.633 Y249.639 E.00394
G1 X78.626 Y249.812 E.00624
G1 X84.501 Y264.123 E.55856
G1 X84.907 Y265.052 E.03662
G1 X85.395 Y265.906 E.03549
G1 X85.642 Y266.509 E.02353
G1 X85.085 Y266.173 E.02348
G1 X84.697 Y265.835 E.01859
G1 X84.287 Y265.514 E.01879
G1 X83.451 Y264.959 E.03622
G1 X59.413 Y249.705 E1.02793
G1 X86.553 Y214.066 E1.6174
G1 X86.591 Y213.901 E.00614
G1 X80.027 Y180.624 E1.22465
G1 X79.779 Y179.526 E.04064
G1 X79.501 Y178.707 E.03124
G1 X79.429 Y178.272 E.01591
G1 X79.773 Y178.434 E.01371
G1 X80.541 Y178.977 E.03396
G1 X80.978 Y179.232 E.01826
G1 X84.433 Y181.053 E.14101
G1 X90.198 Y181.052 E.20817
G1 X90.334 Y181.001 E.00524
G1 X90.405 Y180.845 E.0062
G1 X90.405 Y45.655 E4.88118
G1 X90.512 Y44.024 E.05902
G1 X90.828 Y42.433 E.05855
G1 X91.35 Y40.898 E.05855
G1 X92.067 Y39.443 E.05855
G1 X92.968 Y38.095 E.05855
G1 X94.037 Y36.876 E.05855
G1 X95.256 Y35.806 E.05855
G1 X96.604 Y34.905 E.05855
G1 X98.058 Y34.188 E.05855
G1 X99.594 Y33.667 E.05855
G1 X101.184 Y33.35 E.05855
G1 X102.816 Y33.243 E.05902
G1 X201.632 Y33.236 E3.56787
G1 X202.658 Y33.303 E.03711
G1 X203.681 Y33.507 E.03768
G1 X204.669 Y33.842 E.03768
G1 X205.605 Y34.304 E.03768
G1 X206.473 Y34.883 E.03768
G1 X207.257 Y35.571 E.03768
G1 X207.946 Y36.356 E.03768
G1 X208.515 Y37.208 E.037
G1 X208.987 Y38.159 E.03836
G1 X209.322 Y39.147 E.03767
G1 X209.526 Y40.171 E.03768
G1 X209.595 Y41.225 E.03815
G1 X209.595 Y180.834 E5.04073
G1 X209.653 Y180.978 E.0056
G1 X209.765 Y181.026 E.0044
;WIPE_START
G1 X211.765 Y181.031 E-.6
;WIPE_END
G1 Z.4 F30000
G1 X179.588 Y187.433 Z.4
G1 Z.2
G1 E.6 F2400
;TYPE:Inner wall
G1 F3600
G1 X179.662 Y187.304 E.00539
G1 X180.535 Y186.166 E.05179
G1 X180.746 Y185.955 E.01077
G1 X181.884 Y185.082 E.05179
G1 X182.143 Y184.933 E.01077
G1 X183.468 Y184.384 E.05179
G1 X183.756 Y184.307 E.01077
G1 X185.178 Y184.12 E.05179
G1 X185.476 Y184.12 E.01077
G1 X186.899 Y184.307 E.05179
G1 X187.187 Y184.384 E.01077
G1 X188.512 Y184.933 E.05179
G1 X188.77 Y185.082 E.01077
G1 X189.908 Y185.955 E.05179
G1 X190.119 Y186.166 E.01077
G1 X190.992 Y187.304 E.05179
G1 X191.141 Y187.562 E.01077
G1 X191.69 Y188.888 E.05179
G1 X191.768 Y189.176 E.01077
G1 X191.955 Y190.598 E.05179
G1 X191.955 Y190.896 E.01077
G1 X191.768 Y192.318 E.05179
G1 X191.69 Y192.606 E.01077
G1 X191.141 Y193.932 E.05179
G1 X190.992 Y194.19 E.01077
G1 X190.119 Y195.328 E.05179
G1 X189.908 Y195.539 E.01077
G1 X188.77 Y196.412 E.05179
G1 X188.512 Y196.561 E.01077
G1 X187.187 Y197.11 E.05179
G1 X186.899 Y197.187 E.01077
G1 X185.476 Y197.375 E.05179
G1 X185.178 Y197.375 E.01077
G1 X183.756 Y197.187 E.05179
G1 X183.468 Y197.11 E.01077
G1 X182.143 Y196.561 E.05179
G1 X181.884 Y196.412 E.01077
G1 X180.746 Y195.539 E.05179
G1 X180.535 Y195.328 E.01077
G1 X179.662 Y194.19 E.05179
G1 X179.513 Y193.932 E.01077
G1 X178.964 Y192.606 E.05179
G1 X178.887 Y192.318 E.01077
G1 X178.7 Y190.896 E.05179
G1 X178.7 Y190.598 E.01077
G1 X178.887 Y189.176 E.05179
G1 X178.964 Y188.888 E.01077
G1 X179.513 Y187.562 E.05179
G1 X179.568 Y187.468 E.00394
G1 X179.938 Y187.731 F30000
G1 F3600
G1 X179.97 Y187.654 E.003
G1 X180.844 Y186.515 E.05182
G1 X181.025 Y186.318 E.00967
G1 X182.163 Y185.445 E.05179
G1 X182.868 Y185.127 E.02791
G1 X183.726 Y184.772 E.03356
G1 X185.327 Y184.561 E.05831
G1 X186.928 Y184.772 E.05831
G1 X188.42 Y185.39 E.05831
G1 X189.63 Y186.318 E.05505
G1 X190.655 Y187.617 E.05976
G1 X191.268 Y189.063 E.05668
G1 X191.408 Y189.946 E.03231
G1 X191.502 Y190.658 E.02589
G1 X191.44 Y191.306 E.02353
G1 X191.303 Y192.348 E.03794
G1 X190.685 Y193.84 E.05831
G1 X189.702 Y195.121 E.05831
G1 X188.492 Y196.049 E.05505
G1 X186.928 Y196.722 E.06146
G1 X185.417 Y196.921 E.05505
G1 X183.816 Y196.734 E.0582
G1 X182.318 Y196.139 E.0582
G1 X181.655 Y195.66 E.02954
G1 X181.025 Y195.176 E.02866
G1 X179.97 Y193.84 E.06146
G1 X179.352 Y192.348 E.05831
G1 X179.141 Y190.747 E.05831
G1 X179.352 Y189.146 E.05831
G1 X179.923 Y187.768 E.05387
G1 X180.401 Y187.879 F30000
;TYPE:Outer wall
G1 F3600
G1 X181.316 Y186.698 E.05396
G1 X182.454 Y185.824 E.05179
G1 X183.851 Y185.238 E.05471
G1 X185.327 Y185.044 E.05376
G1 X186.803 Y185.238 E.05376
G1 X188.179 Y185.808 E.05376
G1 X189.339 Y186.698 E.05277
G1 X190.271 Y187.908 E.05517
G1 X190.826 Y189.246 E.05229
G1 X191.027 Y190.72 E.05372
G1 X190.836 Y192.223 E.05471
G1 X190.267 Y193.599 E.05376
G1 X189.36 Y194.78 E.05376
G1 X188.201 Y195.67 E.05277
G1 X186.803 Y196.256 E.05471
G1 X185.354 Y196.447 E.05277
G1 X183.878 Y196.26 E.05373
G1 X182.501 Y195.697 E.05373
G1 X181.946 Y195.28 E.02506
G1 X181.316 Y194.797 E.02866
G1 X180.388 Y193.599 E.05471
G1 X179.818 Y192.223 E.05376
G1 X179.624 Y190.747 E.05376
G1 X179.818 Y189.271 E.05376
G1 X180.381 Y187.913 E.05306
;WIPE_START
G1 X181.316 Y186.698 E-.46016
G1 X181.686 Y186.414 E-.13984
;WIPE_END
G1 Z.4 F30000
G1 X182.596 Y125.747 Z.4
G1 Z.2
G1 E.6 F2400
;TYPE:Inner wall
G1 F3600
G1 X182.869 Y125.607 E.01108
G1 X183.753 Y125.241 E.03453
G1 X184.132 Y125.152 E.01407
G1 X185.178 Y125.014 E.0381
G1 X185.476 Y125.014 E.01077
G1 X186.614 Y125.164 E.04142
G1 X186.902 Y125.241 E.01077
G1 X187.962 Y125.68 E.04142
G1 X188.22 Y125.829 E.01077
G1 X189.13 Y126.528 E.04142
G1 X189.341 Y126.739 E.01077
G1 X190.04 Y127.649 E.04142
G1 X190.189 Y127.907 E.01077
G1 X190.628 Y128.967 E.04142
G1 X190.705 Y129.255 E.01077
G1 X190.855 Y130.393 E.04142
G1 X190.855 Y130.691 E.01077
G1 X190.705 Y131.828 E.04142
G1 X190.628 Y132.116 E.01077
G1 X190.189 Y133.176 E.04142
G1 X190.04 Y133.435 E.01077
G1 X189.341 Y134.345 E.04142
G1 X189.13 Y134.556 E.01077
G1 X188.22 Y135.254 E.04142
G1 X187.962 Y135.403 E.01077
G1 X186.902 Y135.842 E.04142
G1 X186.614 Y135.919 E.01077
G1 X185.476 Y136.069 E.04142
G1 X185.178 Y136.069 E.01077
G1 X184.041 Y135.919 E.04142
G1 X183.753 Y135.842 E.01077
G1 X182.693 Y135.403 E.04142
G1 X182.434 Y135.254 E.01077
G1 X181.38 Y134.431 E.04831
G1 X180.615 Y133.435 E.04535
G1 X180.466 Y133.176 E.01077
G1 X180.027 Y132.116 E.04142
G1 X179.95 Y131.828 E.01077
G1 X179.8 Y130.691 E.04142
G1 X179.8 Y130.393 E.01077
G1 X179.95 Y129.255 E.04142
G1 X180.027 Y128.967 E.01077
G1 X180.466 Y127.907 E.04142
G1 X180.615 Y127.649 E.01077
G1 X181.313 Y126.739 E.04142
G1 X181.524 Y126.528 E.01077
G1 X182.434 Y125.829 E.04142
G1 X182.56 Y125.765 E.0051
G1 X182.838 Y126.137 F30000
G1 F3600
G1 X184.005 Y125.63 E.04594
G1 X185.327 Y125.456 E.04815
G1 X186.463 Y125.605 E.04136
G1 X186.727 Y125.663 E.00977
G1 X187.787 Y126.102 E.04142
G1 X188.603 Y126.699 E.03649
G1 X188.979 Y127.017 E.01777
G1 X189.732 Y127.999 E.04468
G1 X190.24 Y129.225 E.04794
G1 X190.413 Y130.542 E.04794
G1 X190.24 Y131.858 E.04794
G1 X189.732 Y133.085 E.04794
G1 X188.924 Y134.138 E.04794
G1 X187.87 Y134.946 E.04794
G1 X186.644 Y135.455 E.04794
G1 X185.327 Y135.628 E.04794
G1 X184.1 Y135.466 E.04468
G1 X182.868 Y134.981 E.04784
G1 X182.162 Y134.469 E.03147
G1 X181.716 Y134.118 E.0205
G1 X180.923 Y133.085 E.04704
G1 X180.414 Y131.858 E.04794
G1 X180.241 Y130.542 E.04794
G1 X180.403 Y129.315 E.04468
G1 X180.789 Y128.32 E.03854
G1 X180.978 Y127.927 E.01573
G1 X181.676 Y127.017 E.04142
G1 X182.713 Y126.192 E.04784
G1 X182.802 Y126.153 E.00351
G1 X183.025 Y126.563 F30000
;TYPE:Outer wall
G1 F3600
G1 X184.135 Y126.095 E.04348
G1 X185.327 Y125.938 E.04341
G1 X186.544 Y126.106 E.04434
G1 X187.604 Y126.545 E.04142
G1 X188.599 Y127.308 E.04529
G1 X189.314 Y128.24 E.04241
G1 X189.774 Y129.35 E.04339
G1 X189.931 Y130.542 E.04339
G1 X189.774 Y131.733 E.04339
G1 X189.314 Y132.843 E.04339
G1 X188.582 Y133.797 E.04339
G1 X187.629 Y134.528 E.04339
G1 X186.519 Y134.988 E.04339
G1 X185.327 Y135.145 E.04339
G1 X184.163 Y134.992 E.04241
G1 X183.051 Y134.539 E.04336
G1 X182.068 Y133.791 E.0446
G1 X181.341 Y132.843 E.04312
G1 X180.881 Y131.733 E.04339
G1 X180.724 Y130.542 E.04339
G1 X180.877 Y129.377 E.04241
G1 X181.232 Y128.503 E.03406
G1 X181.357 Y128.218 E.01124
G1 X182.056 Y127.308 E.04142
G1 X182.991 Y126.582 E.04275
;WIPE_START
